public/svg/arrow6.svg

<svg width="74" height="76" viewBox="0 0 74 76" fill="none" xmlns="http://www.w3.org/2000/svg">
<path d="M60.7866 2.82281L60.8944 7.05579L60.8012 11.3527L60.4836 15.6061L59.9614 19.8117L59.2338 24.0618L58.2834 28.2271C57.9167 29.6058 57.4948 30.9658 57.126 32.3348C56.7572 33.7038 56.2054 35.0305 55.7423 36.3892C55.2792 37.7479 54.6581 39.0385 54.1237 40.3512C53.5893 41.664 52.8794 42.9226 52.2583 44.2131C51.6373 45.5037 50.854 46.7066 50.1518 47.9533C49.4496 49.2001 48.6201 50.3311 47.7955 51.5327L45.2058 54.9784L42.3698 58.2319L39.2909 61.2617L35.9706 64.0265L35.8995 61.9956C38.4437 63.6345 40.7898 65.3982 43.3434 66.1348C43.6678 66.1747 43.9664 66.3318 44.183 66.5765C44.3997 66.8211 44.5194 67.1366 44.5197 67.4634C44.5201 67.7902 44.4009 68.1059 44.1848 68.351C43.9686 68.5962 43.6703 68.7538 43.346 68.7944L43.2971 68.805C38.6855 70.2776 33.996 71.494 29.25 72.4486C24.4747 73.2691 19.6561 73.8132 14.8181 74.078C14.5484 74.0959 14.278 74.0541 14.0263 73.9556C13.7745 73.8571 13.5475 73.7044 13.3615 73.5083C13.1755 73.3122 13.0349 73.0775 12.9499 72.8209C12.8649 72.5643 12.8374 72.2921 12.8695 72.0237L12.8547 71.9553C13.3238 68.192 13.5975 64.4069 13.6747 60.6152C13.7347 56.8268 13.6614 53.0366 13.3666 49.2636C13.3375 48.8838 13.4093 48.5032 13.5747 48.1601C13.7401 47.8171 13.9933 47.5239 14.3085 47.3103C14.6238 47.0966 14.9899 46.9701 15.3698 46.9436C15.7497 46.917 16.1299 46.9914 16.4718 47.1592C18.3182 48.0794 20.1659 48.9585 22.0581 50.0428C23 50.5654 23.9447 51.1488 24.8245 51.7155L27.4792 53.392L24.3133 54.1283L25.6421 51.5693L26.7738 48.9507L27.7578 46.1696C28.0157 45.2339 28.2953 44.3037 28.5413 43.3603C28.7874 42.4169 28.9684 41.4569 29.1495 40.4969C29.3305 39.5369 29.4928 38.6321 29.6136 37.5828C29.7344 36.5335 29.8555 35.6274 29.9477 34.6355L30.2037 31.705C30.2365 30.6748 30.3058 29.7185 30.3233 28.712L30.3389 25.7108L30.281 22.6539L30.1645 19.6097L30.0186 16.5718L29.8336 13.5423L29.4637 7.48351C29.4467 7.24175 29.5228 7.00263 29.6763 6.81508C29.8298 6.62754 30.0491 6.50576 30.2895 6.47466C30.5299 6.44357 30.773 6.5055 30.9692 6.6478C31.1654 6.7901 31.2998 7.002 31.3448 7.24012C31.7679 9.19487 32.1436 11.2622 32.499 13.2827C32.8544 15.3032 33.1533 17.3463 33.411 19.3879C33.6687 21.4296 33.8796 23.4917 34.0221 25.5685L34.1751 28.6867C34.2009 29.7043 34.1974 30.7282 34.2185 31.8184C34.2396 32.9086 34.1431 33.881 34.111 34.9622C34.079 36.0435 33.9379 37.046 33.8562 38.0868C33.7745 39.1277 33.5853 40.1918 33.4449 41.2453C33.3046 42.2988 33.0372 43.3798 32.8234 44.3776C32.6096 45.3754 32.2479 46.4462 32.0014 47.4817C31.7548 48.5173 31.2917 49.4975 30.9656 50.5912C30.6396 51.6849 30.1259 52.5736 29.6942 53.5572L28.1858 56.421C27.9181 56.9164 27.4668 57.287 26.9288 57.4532C26.3908 57.6193 25.8091 57.5678 25.3087 57.3097L25.1206 57.1969L25.0493 57.151L22.5021 55.4513C21.6559 54.8977 20.8496 54.3867 20.0071 53.9449C18.2975 52.995 16.4468 52.0552 14.6255 51.1091L17.7663 49.0276C18.0095 52.9543 18.0315 56.8914 17.8321 60.8205C17.6113 64.7233 17.1893 68.6122 16.5679 72.4715L14.6261 70.3543C19.3357 70.2243 24.0352 69.8459 28.7049 69.2208C33.3698 68.4783 37.9901 67.4785 42.5445 66.2258L42.5183 68.7996C40.9988 68.2751 39.5536 67.5561 38.2186 66.6606C36.9172 65.8475 35.7021 64.9134 34.5132 64.1475C34.3456 64.0405 34.2061 63.8947 34.1066 63.7224C34.0071 63.5501 33.9505 63.3565 33.9416 63.1577C33.9328 62.959 33.9718 62.761 34.0555 62.5806C34.1392 62.4001 34.2651 62.2424 34.4225 62.1208L37.6615 59.5475L40.7211 56.6652L43.5289 53.6122C44.3885 52.5258 45.2622 51.4568 46.1078 50.353C46.9535 49.2491 47.6586 48.0632 48.4308 46.9036C49.203 45.744 49.855 44.5491 50.516 43.301C51.177 42.053 51.7793 40.8176 52.3676 39.5649C52.956 38.3121 53.4729 37.0133 53.9921 35.7244C54.5112 34.4354 54.9492 33.1026 55.3914 31.7894C55.8336 30.4761 56.1829 29.1114 56.5678 27.7696L57.4829 23.7245L58.1988 19.61L58.6918 15.4107L58.9697 11.258L59.0297 7.091L58.8709 2.85883C58.8648 2.60507 58.9598 2.35929 59.135 2.17556C59.3101 1.99183 59.551 1.88521 59.8048 1.87913C60.0586 1.87306 60.3043 1.96804 60.4881 2.14318C60.6718 2.31832 60.7784 2.55928 60.7845 2.81304L60.7866 2.82281Z" fill="#C1CEBE"/>
<path d="M35.4325 57.7083L36.6006 56.5347C36.991 56.1637 37.4427 55.6977 37.9186 55.1547C38.3945 54.6118 38.9695 54.0065 39.5624 53.2949C40.1553 52.5834 40.7007 51.8413 41.3562 50.9935C42.0117 50.1456 42.5742 49.2463 43.1988 48.3029C43.8234 47.3594 44.4136 46.3518 44.9639 45.3016C45.5142 44.2514 46.0506 43.1838 46.5729 42.0988C47.0952 41.0138 47.5742 39.9177 47.9903 38.8147C48.4064 37.7117 48.8183 36.5892 49.2263 35.5903C49.6342 34.5914 49.9743 33.5152 50.253 32.534C50.5318 31.5528 50.8645 30.6316 51.1198 29.7783L52.4195 25.6193C52.7331 24.6101 52.9555 24.03 52.9555 24.03C52.9962 23.9267 53.0715 23.8407 53.1685 23.7867C53.2655 23.7327 53.3783 23.714 53.4876 23.7338C53.5968 23.7536 53.6958 23.8106 53.7678 23.8953C53.8397 23.9799 53.88 24.0868 53.8819 24.1978C53.8819 24.1978 53.8937 24.8194 53.8204 25.8993C53.8055 26.4448 53.7216 27.0974 53.6176 27.8463C53.4991 28.6868 53.3381 29.5207 53.1352 30.3449C52.9555 31.2637 52.6606 32.2176 52.3609 33.2442C52.0613 34.2708 51.652 35.3109 51.2415 36.3922C50.8309 37.4735 50.3421 38.5718 49.7786 39.6555C49.2151 40.7392 48.6537 41.8327 48.0587 42.913C47.4637 43.9933 46.7995 45.0374 46.115 46.0347C45.4305 47.0321 44.7774 48.0328 44.1214 48.9729C43.4654 49.9129 42.7771 50.7985 42.1153 51.617C41.4534 52.4355 40.8362 53.2239 40.2272 53.9082C39.6181 54.5925 39.083 55.2404 38.5876 55.7875C38.0921 56.3347 37.6468 56.8301 37.276 57.1968L36.1141 58.3998C36.0708 58.4448 36.019 58.4808 35.9618 58.5058C35.9045 58.5308 35.8429 58.5442 35.7805 58.5454C35.718 58.5465 35.6559 58.5354 35.5978 58.5126C35.5396 58.4897 35.4866 58.4557 35.4416 58.4123C35.3966 58.369 35.3606 58.3172 35.3356 58.26C35.3106 58.2027 35.2972 58.1411 35.296 58.0787C35.2948 58.0162 35.306 57.9541 35.3288 57.896C35.3516 57.8378 35.3857 57.7848 35.429 57.7398L35.4325 57.7083Z" fill="#C1CEBE"/>
<path d="M53.1172 19.3898C53.1865 19.2806 53.2723 19.1826 53.3715 19.0995C53.5447 18.9546 53.7541 18.8597 53.9772 18.8251C54.1969 18.7918 54.4215 18.8252 54.622 18.9209C54.7381 18.9755 54.8441 19.0494 54.9354 19.1396C55.1067 19.3225 55.2136 19.5563 55.2398 19.8055C55.266 20.0546 55.2102 20.3056 55.0807 20.5201C55.0116 20.6274 54.9249 20.7223 54.8242 20.8007C54.6504 20.9368 54.44 21.0179 54.2199 21.0338C53.9954 21.0438 53.7723 20.9931 53.5742 20.887C53.4578 20.8277 53.3514 20.7506 53.2587 20.6586C53.1005 20.4912 53.0011 20.2768 52.9755 20.0479C52.95 19.819 52.9997 19.588 53.1172 19.3898Z" fill="#C1CEBE"/>
<path d="M53.5932 15.7664C53.8682 15.4374 54.2556 15.2223 54.6802 15.1628C54.83 15.1212 54.9868 15.1112 55.1407 15.1335C55.2946 15.1559 55.4421 15.21 55.5739 15.2925C55.7058 15.3749 55.819 15.4839 55.9063 15.6126C55.9937 15.7412 56.0534 15.8866 56.0815 16.0395C56.1096 16.1924 56.1055 16.3495 56.0696 16.5008C56.0336 16.6521 55.9666 16.7942 55.8727 16.9182C55.7788 17.0421 55.6602 17.1452 55.5243 17.2207C55.3884 17.2963 55.2382 17.3428 55.0834 17.3571L54.927 17.391C54.7202 17.4281 54.5079 17.4219 54.3035 17.3728C54.0992 17.3237 53.9072 17.2327 53.7398 17.1056C53.5481 16.9479 53.422 16.7246 53.3859 16.479C53.3497 16.2334 53.4062 15.9832 53.5444 15.7769L53.603 15.7642C53.7374 15.6035 53.9037 15.4724 54.0912 15.3789C54.2788 15.2855 54.4836 15.2319 54.6929 15.2214L54.9376 17.4399C54.4958 17.4579 54.0639 17.306 53.7306 17.0156C53.5475 16.8752 53.427 16.6686 53.3948 16.4402C53.3625 16.2118 53.4213 15.9799 53.5584 15.7944L53.5932 15.7664Z" fill="#C1CEBE"/>
<path d="M53.442 12.2815C53.5397 12.1505 53.668 12.0455 53.8158 11.9756C54.1158 11.8162 54.4541 11.743 54.7931 11.764C55.0854 11.7805 55.3688 11.8705 55.6171 12.0257C55.754 12.1131 55.8724 12.2265 55.9656 12.3595C56.0872 12.569 56.1287 12.8155 56.0823 13.0532C56.0359 13.291 55.9048 13.5038 55.7133 13.6521L55.6156 13.6733C55.5037 13.7484 55.3827 13.8089 55.2555 13.8535C55.0387 13.9309 54.8075 13.96 54.5782 13.9387C54.3447 13.9137 54.118 13.8447 53.9101 13.7354C53.7874 13.665 53.6683 13.5883 53.5535 13.5056C53.3687 13.3801 53.2392 13.1883 53.192 12.97C53.1447 12.7516 53.1833 12.5235 53.2996 12.3328L53.442 12.2815Z" fill="#C1CEBE"/>
</svg>

<svg xmlns="http://www.w3.org/2000/svg" width="74" height="76" fill="#c1cebe" xmlns:v="https://vecta.io/nano"><path d="M60.787 2.823l.108 4.233-.093 4.297-.318 4.253-.522 4.206-.728 4.25-.95 4.165-1.157 4.108c-.37 1.37-.92 2.696-1.384 4.054s-1.084 2.65-1.62 3.962-1.244 2.57-1.865 3.862-1.404 2.494-2.106 3.74-1.532 2.378-2.356 3.58l-2.6 3.446-2.836 3.254-3.08 3.03-3.32 2.765-.07-2.03c2.544 1.64 4.9 3.403 7.444 4.14a1.34 1.34 0 0 1 .002 2.66l-.05.01c-4.612 1.473-9.3 2.7-14.047 3.644-4.775.82-9.594 1.365-14.432 1.63a1.84 1.84 0 0 1-1.949-2.055l-.015-.068a109.74 109.74 0 0 0 .82-11.34c.06-3.788-.013-7.58-.308-11.352a2.16 2.16 0 0 1 3.105-2.104c1.846.92 3.694 1.8 5.586 2.884a49.87 49.87 0 0 1 2.766 1.673l2.655 1.677-3.166.736 1.33-2.56 1.132-2.62.984-2.78.784-2.8c.246-.943.427-1.903.608-2.863s.343-1.865.464-2.914l.334-2.947.256-2.93.12-2.993.016-3-.058-3.057-.116-3.044-.146-3.038-.555-9.088a.95.95 0 0 1 1.881-.244c.423 1.955.8 4.022 1.154 6.043a127.36 127.36 0 0 1 .912 6.105c.258 2.042.47 4.104.6 6.18l.153 3.118.043 3.132c.02 1.1-.075 2.063-.108 3.144s-.173 2.084-.255 3.125-.27 2.105-.4 3.16-.408 2.135-.62 3.132-.575 2.07-.822 3.104-.7 2.016-1.036 3.1-.84 1.982-1.27 2.966l-1.508 2.864a2.15 2.15 0 0 1-2.877.889l-.188-.113-.07-.046-2.547-1.7c-.846-.554-1.652-1.065-2.495-1.506-1.7-.95-3.56-1.9-5.382-2.836l3.14-2.08a104.97 104.97 0 0 1 .066 11.793 113.69 113.69 0 0 1-1.264 11.651l-1.942-2.117c4.7-.13 9.4-.508 14.08-1.133a127.97 127.97 0 0 0 13.84-2.995l-.026 2.574a18.63 18.63 0 0 1-4.3-2.139c-1.3-.813-2.517-1.747-3.705-2.513a1.24 1.24 0 0 1-.091-2.027l3.24-2.573 3.06-2.882 2.808-3.053 2.58-3.26c.846-1.104 1.55-2.3 2.323-3.45s1.424-2.354 2.085-3.603a86.22 86.22 0 0 0 1.852-3.736c.588-1.253 1.105-2.552 1.624-3.84s.957-2.622 1.4-3.935.8-2.678 1.176-4.02l.915-4.045.716-4.114.493-4.2.278-4.153.06-4.167-.16-4.232a.96.96 0 0 1 .264-.683c.174-.183.416-.3.67-.296s.5.1.683.264.3.416.296.67l.002.01zM35.433 57.708l1.168-1.174 1.318-1.38 1.644-1.86 1.794-2.3c.655-.848 1.218-1.747 1.843-2.7s1.215-1.95 1.765-3l1.6-3.203L48 38.815l1.236-3.224c.408-1 .748-2.075 1.027-3.056l.867-2.756 1.3-4.16.536-1.6a.48.48 0 0 1 .926.168s.012.622-.062 1.7c-.015.546-.1 1.198-.203 1.947a25.13 25.13 0 0 1-.482 2.499c-.18.92-.475 1.873-.774 2.9s-.7 2.067-1.12 3.148a30.79 30.79 0 0 1-1.463 3.263l-1.72 3.257c-.595 1.08-1.26 2.124-1.944 3.122L44.13 48.97l-2.006 2.644-1.888 2.3-1.64 1.88-1.312 1.4-1.162 1.203a.49.49 0 0 1-.152.106c-.057.026-.12.038-.18.04s-.125-.01-.183-.033-.1-.057-.156-.1-.08-.095-.106-.152-.038-.12-.04-.18.01-.125.033-.183.057-.1.1-.156l.003-.032zM53.117 19.4a1.26 1.26 0 0 1 .254-.29 1.24 1.24 0 0 1 .606-.274 1.11 1.11 0 0 1 .645.096 1.13 1.13 0 0 1 .313.219 1.15 1.15 0 0 1 .145 1.38 1.14 1.14 0 0 1-.257.28 1.11 1.11 0 0 1-.604.233 1.25 1.25 0 0 1-.646-.147 1.26 1.26 0 0 1-.316-.228 1.06 1.06 0 0 1-.142-1.269zm.476-3.634a1.73 1.73 0 0 1 1.087-.604 1.12 1.12 0 0 1 .894.13 1.09 1.09 0 0 1 .332.32 1.12 1.12 0 0 1-.382 1.608 1.12 1.12 0 0 1-.441.136l-.156.034a1.52 1.52 0 0 1-1.187-.285 1 1 0 0 1-.195-1.329l.06-.013a1.52 1.52 0 0 1 1.09-.543l.245 2.22a1.73 1.73 0 0 1-1.207-.424.88.88 0 0 1-.172-1.221l.035-.028zm-.15-3.484a1 1 0 0 1 .374-.306 1.84 1.84 0 0 1 .977-.212 1.74 1.74 0 0 1 .824.262 1.24 1.24 0 0 1 .349.334 1 1 0 0 1-.252 1.293l-.098.02a1.59 1.59 0 0 1-.36.18 1.58 1.58 0 0 1-.677.085 1.86 1.86 0 0 1-.668-.203 3.94 3.94 0 0 1-.357-.23.87.87 0 0 1-.254-1.173l.142-.05z"/></svg>
